X:29
T:My Love is Newly Listed
T:The Snows They Melt the Soonest
Z:Jack Campin, http://www.campin.me.uk/
S:Northumbrian Minstrelsy
M:C
L:1/8
K:E Minor
E>`F |G>BB^c  d<BBA | GE````E^D E2 z
 E/F/|G>BB^c  d>de>d|^cA````B^G A2 z
 F   |GB`B>^c d>de>d|^cA````A`c d2 z
=c   |BE`GA   B<dc>A| BG/E/ E>E E2|]

